svg/color/ctc.svg

<?xml version="1.0" encoding="UTF-8"?>
<svg xmlns="http://www.w3.org/2000/svg" xmlns:xlink="http://www.w3.org/1999/xlink" width="32px" height="32px" viewBox="0 0 32 32" version="1.1">
<g id="surface1">
<path style=" stroke:none;fill-rule:nonzero;fill:rgb(99.215686%,99.215686%,99.215686%);fill-opacity:1;" d="M 20.960938 0.640625 C 21.160156 0.707031 21.359375 0.773438 21.566406 0.839844 C 25.558594 2.25 28.675781 5.199219 30.574219 8.960938 C 32.273438 12.652344 32.65625 17.089844 31.359375 20.960938 C 31.292969 21.160156 31.226562 21.359375 31.160156 21.566406 C 29.75 25.558594 26.800781 28.675781 23.039062 30.574219 C 19.347656 32.273438 14.910156 32.65625 11.039062 31.359375 C 10.738281 31.261719 10.738281 31.261719 10.433594 31.160156 C 6.441406 29.75 3.324219 26.800781 1.425781 23.039062 C -0.273438 19.347656 -0.65625 14.910156 0.640625 11.039062 C 0.707031 10.839844 0.773438 10.640625 0.839844 10.433594 C 2.25 6.441406 5.199219 3.324219 8.960938 1.425781 C 12.652344 -0.273438 17.089844 -0.65625 20.960938 0.640625 Z M 20.960938 0.640625 "/>
<path style=" stroke:none;fill-rule:nonzero;fill:rgb(1.568628%,1.568628%,1.568628%);fill-opacity:1;" d="M 21.675781 7.6875 C 22.886719 8.621094 23.867188 9.550781 24.640625 10.878906 C 24.289062 11.265625 23.957031 11.488281 23.488281 11.710938 C 23.316406 11.792969 23.316406 11.792969 23.144531 11.875 C 23.054688 11.917969 22.96875 11.957031 22.878906 12 C 22.8125 11.910156 22.746094 11.816406 22.679688 11.722656 C 21.324219 9.914062 19.660156 8.558594 17.359375 8.199219 C 15.035156 7.972656 12.992188 8.359375 11.082031 9.761719 C 9.546875 11.0625 8.355469 12.839844 8.160156 14.878906 C 8.042969 17.378906 8.527344 19.554688 10.238281 21.441406 C 11.589844 22.863281 13.378906 23.746094 15.339844 23.867188 C 17.65625 23.921875 19.714844 23.347656 21.441406 21.761719 C 21.746094 21.4375 22.035156 21.109375 22.320312 20.765625 C 22.542969 20.5 22.792969 20.25 23.039062 20 C 23.566406 20.316406 24.097656 20.632812 24.640625 20.960938 C 23.574219 23.261719 21.425781 24.714844 19.109375 25.59375 C 16.644531 26.347656 13.804688 26.140625 11.492188 25.039062 C 8.949219 23.652344 7.117188 21.449219 6.269531 18.671875 C 5.636719 15.859375 5.992188 12.980469 7.523438 10.53125 C 9.03125 8.382812 11.238281 6.675781 13.847656 6.140625 C 16.609375 5.710938 19.355469 6.074219 21.675781 7.6875 Z M 21.675781 7.6875 "/>
<path style=" stroke:none;fill-rule:nonzero;fill:rgb(0.392157%,0.392157%,0.392157%);fill-opacity:1;" d="M 16.640625 14.078125 C 17.113281 14.300781 17.390625 14.511719 17.761719 14.878906 C 18.121094 14.933594 18.121094 14.933594 18.546875 14.929688 C 18.707031 14.933594 18.871094 14.9375 19.039062 14.941406 C 19.21875 14.941406 19.394531 14.945312 19.578125 14.945312 C 19.847656 14.949219 19.847656 14.949219 20.125 14.957031 C 20.703125 14.964844 21.28125 14.972656 21.859375 14.980469 C 22.25 14.984375 22.644531 14.992188 23.035156 15 C 23.996094 15.015625 24.957031 15.027344 25.921875 15.039062 C 25.921875 15.671875 25.921875 16.308594 25.921875 16.960938 C 25.679688 16.960938 25.4375 16.960938 25.1875 16.960938 C 24.285156 16.964844 23.386719 16.972656 22.488281 16.984375 C 22.097656 16.988281 21.707031 16.992188 21.320312 16.992188 C 20.757812 16.992188 20.199219 17 19.640625 17.007812 C 19.464844 17.007812 19.292969 17.003906 19.113281 17.003906 C 18.039062 17.027344 17.550781 17.148438 16.800781 17.921875 C 16.148438 18.089844 15.488281 18.078125 14.890625 17.75 C 14.421875 17.371094 14.113281 17.054688 14.035156 16.453125 C 13.988281 15.203125 13.988281 15.203125 14.460938 14.628906 C 15.152344 13.984375 15.722656 13.988281 16.640625 14.078125 Z M 16.640625 14.078125 "/>
</g>
</svg>

<svg xmlns="http://www.w3.org/2000/svg" width="32" height="32" viewBox="0 0 32 32"><path d="m20.96.64.606.2c3.993 1.41 7.11 4.36 9.008 8.12 1.7 3.692 2.082 8.13.785 12l-.199.606c-1.41 3.993-4.36 7.11-8.12 9.008-3.692 1.7-8.13 2.082-12 .785-.302-.097-.302-.097-.606-.199-3.993-1.41-7.11-4.36-9.008-8.12-1.7-3.692-2.082-8.13-.785-12l.199-.606C2.25 6.44 5.2 3.324 8.96 1.426c3.692-1.7 8.13-2.082 12-.785m0 0" style="stroke:none;fill-rule:nonzero;fill:#fdfdfd;fill-opacity:1"/><path d="M21.676 7.688c1.21.933 2.191 1.863 2.965 3.19-.352.388-.684.61-1.153.833l-.343.164-.266.125q-.1-.136-.2-.277c-1.355-1.809-3.019-3.164-5.32-3.524-2.324-.226-4.367.16-6.277 1.563-1.535 1.3-2.727 3.078-2.922 5.117-.117 2.5.367 4.676 2.078 6.562 1.352 1.422 3.14 2.305 5.102 2.426 2.316.055 4.375-.52 6.101-2.105.305-.325.594-.653.88-.996.222-.266.472-.516.718-.766.527.316 1.059.633 1.602.96-1.067 2.302-3.215 3.755-5.532 4.634-2.464.754-5.304.547-7.617-.555-2.543-1.387-4.375-3.59-5.222-6.367-.633-2.813-.278-5.692 1.253-8.14 1.508-2.15 3.715-3.856 6.325-4.391 2.761-.43 5.507-.067 7.828 1.547m0 0" style="stroke:none;fill-rule:nonzero;fill:#040404;fill-opacity:1"/><path d="M16.64 14.078c.473.223.75.434 1.122.8.36.056.36.056.785.052l.492.011c.18 0 .356.004.54.004.269.004.269.004.546.012l1.734.023a702 702 0 0 0 4.063.059v1.922h-.735q-1.352.006-2.699.023-.586.007-1.168.008-.842.002-1.68.016c-.175 0-.347-.004-.527-.004-1.074.023-1.562.144-2.312.918-.653.168-1.313.156-1.91-.172-.47-.379-.778-.695-.856-1.297-.047-1.25-.047-1.25.426-1.824.691-.645 1.262-.64 2.18-.55m0 0" style="stroke:none;fill-rule:nonzero;fill:#010101;fill-opacity:1"/></svg>
